outputs/icons/navigation/cancel_outline_round.svg

<svg xmlns="http://www.w3.org/2000/svg" width="1200" height="1200" fill="none"><g clip-path="url(#a)"><path fill="#000" d="M694.5 435 600 529.5 505.5 435c-19.5-19.5-51-19.5-70.5 0s-19.5 51 0 70.5l94.5 94.5-94.5 94.5c-19.5 19.5-19.5 51 0 70.5s51 19.5 70.5 0l94.5-94.5 94.5 94.5c19.5 19.5 51 19.5 70.5 0s19.5-51 0-70.5L670.5 600l94.5-94.5c19.5-19.5 19.5-51 0-70.5-19.5-19-51.5-19-70.5 0M600 100c-276.5 0-500 223.5-500 500s223.5 500 500 500 500-223.5 500-500-223.5-500-500-500m0 900c-220.5 0-400-179.5-400-400s179.5-400 400-400 400 179.5 400 400-179.5 400-400 400"/></g><defs><clipPath id="a"><path fill="#fff" d="M0 0h1200v1200H0z"/></clipPath></defs></svg>

<svg width="1200" height="1200" viewBox="0 0 1200 1200" fill="none" xmlns="http://www.w3.org/2000/svg"><g clip-path="url(#clip0_223_1870)"><path d="M694.5 435L600 529.5L505.5 435C486 415.5 454.5 415.5 435 435C415.5 454.5 415.5 486 435 505.5L529.5 600L435 694.5C415.5 714 415.5 745.5 435 765C454.5 784.5 486 784.5 505.5 765L600 670.5L694.5 765C714 784.5 745.5 784.5 765 765C784.5 745.5 784.5 714 765 694.5L670.5 600L765 505.5C784.5 486 784.5 454.5 765 435C745.5 416 713.5 416 694.5 435ZM600 100C323.5 100 100 323.5 100 600C100 876.5 323.5 1100 600 1100C876.5 1100 1100 876.5 1100 600C1100 323.5 876.5 100 600 100ZM600 1000C379.5 1000 200 820.5 200 600C200 379.5 379.5 200 600 200C820.5 200 1000 379.5 1000 600C1000 820.5 820.5 1000 600 1000Z" fill="black"/></g><defs><clipPath id="clip0_223_1870"><path width="24" fill="white" d="M0 0H1200V1200H0V0z"/></clipPath></defs></svg>
